X:1
T: Mr. Jensen's Gift
N:
C:Jonathan Jensen
S:Tune is "Brattleboro Hornpipe"
A:
O:
R:
M:3/2
K:D
I:speed 210
%W: A1
% voice 1 (1 lines, 31 notes)
K:D
M:3/2
L:1/16
A4 F4 |D4 |G4 B8 |B4 A2 |^G2 F2 E2 |A4 c8 |e4 c4 |A4 d4 |e2 f2 g2 |f2 e2 d2 |f2 e2 d2 |c2 d4 |D8 |A4 F4 |D4
%W: A2
% voice 1 (1 lines, 28 notes)
G4 |B8 |B4 A2 |^G2 F2 E2 |A4 c8 |e4 c4 |A4 d4 |e2 f2 g2 |f2 e2 d2 |f2 e2 d2 |c2 d4 |D8 |a4 f4 |d4
%W: B1
% voice 1 (1 lines, 34 notes)
g4 |b2 g2 e4 |g2 e2 d2 |c2 B2 A2 |f4 a2 |f2 d4 |f2 d2 B2 |A2 G2 F2 |G4 B2 |G2 E4 |g4 f2 |e2 d2 c2 |d4 D8 |a4 f4 |d4
%W: B2
% voice 1 (1 lines, 31 notes)
g4 |b2 g2 e4 |g2 e2 d2 |c2 B2 A2 |f4 a2 |f2 d4 |f2 d2 B2 |A2 G2 F2 |G4 B2 |G2 E4 |g4 f2 |e2 d2 c2 |d4 D8 |||
